X: 43000
T: Willie's Fling
R: strathspey
M: 4/4
K: Amajor
|:e>AA>c (3BAF A>F|E>A c>A B2(3ABc|e>AA>c (3BAF A>F|E>A c>B A2 (3ABc:|
d>e (3gfe a2 (3afe|c>ea>f e>c (3ABc|d>e (3gfe a2(3agf|e>cA>c (3BcB (3ABc|
d>e (3gfe a2 (3afe|c>ea>f e>c (3ABc|d>e (3gfe a2(3aaa|a2A>c (3BAF A>f||

